app2/images/message.svg

<svg width="15" height="12" viewBox="0 0 15 12" fill="none" xmlns="http://www.w3.org/2000/svg">
<path d="M12.9744 1H2.15385C1.51841 1 1 1.51785 1 2.15385V9.84615C1 10.48 1.5161 11 2.15385 11H12.9744C13.6082 11 14.1282 10.4839 14.1282 9.84615V2.15385C14.1282 1.52 13.6121 1 12.9744 1ZM12.815 1.76923L7.58856 6.99572L2.3169 1.76923H12.815ZM1.76923 9.68687V2.30946L5.47382 5.98228L1.76923 9.68687ZM2.31315 10.2308L6.02008 6.52385L7.31897 7.81159C7.46933 7.96067 7.71197 7.96018 7.86172 7.81041L9.12821 6.54392L12.8151 10.2308H2.31315ZM13.359 9.68685L9.67213 6L13.359 2.31313V9.68685Z" fill="#F8C307" stroke="#FECD0D" stroke-width="0.5"/>
</svg>

<svg width="15" height="12" viewBox="0 0 15 12" fill="none" xmlns="http://www.w3.org/2000/svg"><path d="M12.974 1H2.154C1.518 1 1 1.518 1 2.154v7.692C1 10.48 1.516 11 2.154 11h10.82c.634 0 1.154-.516 1.154-1.154V2.154c0-.634-.516-1.154-1.154-1.154zm-.159.77L7.589 6.995 2.317 1.769h10.498zM1.769 9.686V2.309l3.705 3.673-3.705 3.705zm.544.544L6.02 6.524l1.3 1.288c.15.149.393.148.543-.002l1.266-1.266 3.687 3.687H2.313zm11.046-.544L9.672 6l3.687-3.687v7.374z" fill="#F8C307" stroke="#FECD0D" stroke-width=".5"/></svg>
